logos/tor.svg

<?xml version="1.0" encoding="UTF-8"?>
<svg width="512px" height="310px" viewBox="0 0 512 310" version="1.1" xmlns="http://www.w3.org/2000/svg" xmlns:xlink="http://www.w3.org/1999/xlink" preserveAspectRatio="xMidYMid">
    <g>
				<path d="M288.4362,23.1020749 L280.282526,55.7167688 C291.833564,32.614694 310.519065,15.2881378 331.922458,0 C316.294584,18.006029 302.025655,36.0120579 293.532246,54.3578233 C308.140911,33.6339031 327.845621,22.4226021 349.928487,14.608665 C320.371421,40.7683674 296.92961,69.3062246 279.263317,97.5043455 L264.994388,91.3890903 C267.372543,68.6267519 275.865953,45.524677 288.4362,23.1020749 L288.4362,23.1020749 Z" fill="#68B044"></path>
				<path d="M250.72546,85.2738352 L277.564635,96.4851363 C277.564635,103.279864 276.885162,124.343521 281.301735,130.458776 C326.14694,188.213963 318.672739,304.40381 272.128853,307.121701 C201.463682,307.121701 174.284771,259.21887 174.284771,215.053138 C174.284771,174.624507 222.527339,148.125068 251.404933,124.343521 C259.21887,117.888529 257.859924,103.619601 250.72546,85.2738352 L250.72546,85.2738352 Z" fill="#F5F8DE"></path>
				<path d="M277.564635,96.1453999 L287.41699,101.241446 C286.397781,107.696437 287.756727,121.965366 294.211718,125.36273 C322.749576,143.029022 349.249014,162.054261 359.780843,181.419235 C397.151846,249.026778 333.62114,311.878011 278.244108,305.762756 C308.140911,283.67989 316.974057,238.155213 305.762756,188.213963 C301.346183,168.848988 294.211718,151.182696 281.641472,131.138249 C276.205689,121.965366 278.244108,109.734856 277.564635,96.1453999 L277.564635,96.1453999 Z" fill="#7E4798"></path>
				<path d="M248.687041,78.8180759 L293.192509,97.1638413 C287.077254,116.868552 304.743547,130.797744 310.519065,133.855372 C323.429048,140.989836 335.659559,148.464037 345.511914,157.297183 C364.197416,174.284003 374.729244,198.065551 374.729244,222.866308 C374.729244,247.667064 363.517943,271.788348 344.152968,287.755959 C326.14694,302.70436 301.006446,309.159352 276.885162,309.159352 C261.936761,309.159352 248.347305,308.479879 233.73864,303.72357 C200.104737,292.512269 175.30398,263.974411 173.265562,229.661035 C171.227143,203.161597 177.342398,182.777413 198.066318,161.37402 C208.598147,150.162719 230.341276,137.252736 245.289677,127.060644 C252.763878,122.304335 260.577815,108.035406 245.629414,81.1962307 L245.629414,81.1962307 L248.687041,78.8180759 Z M252.084405,85.9525402 C253.783087,88.330695 257.859924,98.5227868 258.879133,101.580414 C260.917552,110.073824 259.898342,118.227498 258.19966,121.964598 C249.026778,138.951418 232.719431,143.707727 221.168393,153.220346 C218.888762,155.088897 216.588577,156.912228 214.303108,158.739629 L213.058161,159.737093 C195.033729,174.214765 178.331031,189.507591 180.400026,230.000772 C181.758972,252.76311 199.425264,280.961231 226.264439,293.871214 C231.37512,296.369769 236.713595,298.336806 242.216406,299.886548 C235.648915,296.994494 230.052764,293.400419 225.584966,288.4362 C225.584966,288.096463 223.886285,286.737518 223.886285,286.737518 C214.373665,275.865953 202.482892,257.520188 198.406055,240.193631 C196.707373,233.398904 195.348427,227.963121 197.386846,220.828657 C204.497528,195.477527 219.204275,183.911847 234.594668,173.330842 L235.610336,172.634484 C235.779755,172.518617 235.949238,172.402835 236.118776,172.287121 L237.645856,171.247069 C238.155213,170.900691 238.664818,170.554465 239.174422,170.207934 C242.911523,167.829779 247.667832,165.451625 251.404933,162.393997 C257.57383,158.370803 261.201763,147.571703 264.294756,136.850615 L264.602347,135.77902 C265.316244,133.280423 266.004657,130.798512 266.69307,128.420357 C264.654652,138.952186 262.276497,157.977424 253.103615,165.111888 C249.366514,167.829779 245.289677,170.54767 241.212841,173.265562 L239.71575,174.273203 C223.595266,185.123449 208.034184,195.813866 200.78421,221.847866 C199.085528,227.623385 200.444473,233.73864 201.803419,239.514159 C205.880256,256.161242 217.431293,273.827535 226.604176,284.359363 C226.604176,284.499254 226.892188,284.811953 227.231025,285.155147 L227.528372,285.453462 C227.926679,285.852322 228.302858,286.237905 228.302858,286.397781 C234.873068,294.162575 237.505399,297.201914 257.430995,302.208225 C252.549756,300.218867 247.874347,297.855564 244.610205,295.570664 C228.302858,284.359363 220.149184,270.430171 218.790239,249.706251 C217.771029,233.398904 227.623385,216.75182 246.988359,206.559728 C260.238079,199.425264 264.314916,188.893436 268.391752,175.983453 C265.334125,190.931854 261.936761,199.765 248.347305,207.918674 C232.039958,217.091557 220.488921,235.777058 221.50813,248.347305 C222.867075,263.635443 233.398904,281.301735 245.629414,291.833564 C250.562264,296.21832 258.368886,299.27672 266.017894,301.187081 C264.016956,299.608725 261.822546,297.350296 259.898342,294.551455 C257.520188,291.154091 255.821506,286.397781 254.122824,281.981208 C252.424142,277.904371 250.72546,273.148062 250.72546,269.071225 C250.72546,259.21887 251.744669,246.988359 258.879133,238.834686 C265.334125,231.360485 267.372543,230.341276 270.090434,221.50813 C268.052016,231.360485 266.69307,232.039958 260.577815,240.873104 C252.763878,251.744669 252.424142,262.616234 253.443351,269.410961 C254.122824,273.827535 255.821506,277.904371 257.180451,281.301735 C258.879133,285.718308 260.917552,289.795145 263.635443,293.532246 C266.013598,296.250137 267.372543,297.948819 270.769907,299.647501 C274.507007,292.513036 276.885162,278.244108 277.224899,270.430171 C277.564635,263.635443 277.904371,255.821506 276.885162,248.007569 C275.526217,237.47574 272.468589,227.283648 272.128853,219.129975 C273.827535,226.604176 277.564635,237.136004 279.603053,247.328096 C281.301735,255.481769 281.641472,263.295706 280.961999,269.410961 C280.282526,276.545426 279.94279,282.320945 278.923581,288.4362 C277.988751,293.110348 275.624861,297.498685 271.831911,302.12551 C280.429717,296.643651 285.41305,286.914716 287.756727,275.865953 C290.814354,262.276497 291.154091,249.366514 291.154091,242.571786 C291.154091,237.736468 289.454858,230.564705 287.567918,223.40776 L287.233288,222.145402 C286.841331,220.673947 286.445186,219.208983 286.058045,217.771029 C284.359363,210.976301 277.904371,204.181574 276.205689,199.085528 C273.148062,190.592118 274.507007,184.476863 274.167271,172.586089 C275.526217,183.457653 275.526217,192.970273 278.583844,198.066318 C280.961999,202.482892 285.038836,208.598147 287.41699,214.713402 C292.1733,225.924703 294.551455,238.155213 294.891191,243.930732 C295.230928,253.783087 293.871982,269.071225 290.474618,281.301735 C289.211186,285.40789 287.588838,289.220387 285.769364,292.557214 C289.621786,286.618479 292.566235,279.643463 293.871982,273.487798 C294.092811,272.451602 294.311091,271.412009 294.526187,270.370335 L294.846362,268.806427 C298.763761,249.503046 301.482077,229.712764 298.968028,217.771029 C298.288555,214.713402 297.269346,204.52131 293.192509,193.649745 C287.41699,177.682135 278.923581,164.772152 277.904371,161.714524 C274.661433,153.282885 273.89492,132.77867 273.536455,120.59018 L273.529055,120.307773 C273.632111,123.308962 273.834934,126.587481 274.112785,129.92996 L274.202993,130.987358 C274.264755,131.693375 274.329728,132.401231 274.397679,133.108936 L274.501812,134.170131 C274.519531,134.346895 274.537428,134.523587 274.555501,134.700177 L274.666012,135.758231 C275.754075,145.969357 277.407834,155.625403 278.923581,158.656897 C279.94279,161.714524 289.115672,176.323189 295.570664,191.611327 C299.987237,201.463682 301.346183,210.976301 301.685919,213.694193 C305.083283,242.23205 302.365392,254.122824 294.891191,279.603053 C293.988216,282.728737 292.758615,285.712409 291.330139,288.484387 C295.627886,282.970963 298.792418,277.057479 299.987237,272.128853 C307.121701,240.533368 309.839593,199.765 299.647501,168.509252 C294.211718,152.201905 281.301735,137.932977 278.923581,128.080621 C276.885162,118.907738 276.885162,109.395119 277.564635,97.1646091 L277.564635,97.1646091 L280.961999,98.863291 C279.263317,102.600391 280.282526,121.62563 283.000417,128.760094 C286.397781,138.272713 296.250137,149.144278 302.365392,164.432415 C303.911192,167.999647 305.456993,173.314823 306.827999,178.833926 L307.061284,179.781768 C307.177038,180.256399 307.291434,180.73188 307.404362,181.20724 L307.628229,182.157507 C309.772732,191.336276 311.341227,200.227042 311.538275,201.803419 C314.935638,230.341276 313.236956,257.180451 304.743547,279.94279 C300.728853,290.481361 292.266474,300.093331 286.063115,304.535682 C302.571698,302.307513 325.323246,293.871078 339.056923,282.659913 C356.723215,268.051248 366.235834,245.628646 366.235834,222.866308 C366.235834,200.103969 357.402688,178.36084 340.076132,163.072702 C330.223776,154.239556 314.256166,143.367991 304.064074,137.592472 C293.871982,131.816954 281.301735,115.849343 285.378572,100.561205 L285.378572,100.561205 Z" fill="#010101"></path>
				<path d="M12.909983,29.896035 L196.707373,29.896035 C203.502101,29.896035 209.617356,35.6715537 209.617356,42.806018 L209.617356,97.1638413 C209.617356,104.298306 203.502101,110.073824 196.707373,110.073824 L158.996633,110.073824 C150.503223,110.073824 146.766123,114.830134 146.766123,120.265916 L146.766123,297.948051 C146.766123,304.063306 142.009813,308.479879 136.234295,308.479879 L73.7227978,308.479879 C67.9472791,308.479879 63.5307059,304.063306 63.5307059,297.948051 L63.5307059,118.567234 C63.5307059,113.131452 58.43466,109.734088 54.6975596,109.734088 L12.909983,109.734088 C5.77551872,109.734088 0,103.958569 0,96.8241049 L0,42.4662816 C0,35.6715537 5.77551872,29.896035 12.909983,29.896035 Z" fill="#7E4798"></path>
				<path d="M484.4641,101.920151 L500.771447,101.920151 C506.886702,101.920151 511.643011,106.67646 511.643011,112.451979 L511.643011,170.546903 C511.643011,178.021103 511.982748,181.078731 502.809865,181.078731 C484.803836,181.078731 476.650163,190.59135 476.650163,201.123178 L476.650163,299.306996 C476.650163,303.72357 472.23359,307.800406 467.137544,307.800406 L408.702884,307.800406 C403.606838,307.800406 399.190265,304.063306 399.190265,299.306996 L399.190265,187.533722 C399.190265,185.495304 399.190265,182.777413 399.530001,181.078731 C402.587628,139.630891 435.202322,106.67646 476.310426,102.259887 C477.329635,102.259887 482.085945,101.920151 484.4641,101.920151 L484.4641,101.920151 Z" fill="#7E4798"></path>
		</g>
</svg>

<svg width="512" height="310" xmlns="http://www.w3.org/2000/svg" preserveAspectRatio="xMidYMid">
	<path d="m288.436 23.102-8.153 32.615c11.55-23.102 30.236-40.429 51.64-55.717-15.628 18.006-29.897 36.012-38.39 54.358 14.608-20.724 34.313-31.935 56.395-39.75-29.557 26.16-52.998 54.698-70.665 82.896l-14.269-6.115c2.379-22.762 10.872-45.864 23.442-68.287Z" fill="#68B044"/>
	<path d="m250.725 85.274 26.84 11.211c0 6.795-.68 27.859 3.737 33.974 44.845 57.755 37.37 173.945-9.173 176.663-70.665 0-97.844-47.903-97.844-92.069 0-40.428 48.242-66.928 77.12-90.71 7.814-6.454 6.455-20.723-.68-39.07Z" fill="#F5F8DE"/>
	<path d="m277.565 96.145 9.852 5.096c-1.02 6.455.34 20.724 6.795 24.122 28.538 17.666 55.037 36.691 65.569 56.056 37.37 67.608-26.16 130.459-81.537 124.344 29.897-22.083 38.73-67.608 27.519-117.549-4.417-19.365-11.551-37.031-24.122-57.076-5.435-9.173-3.397-21.403-4.076-34.993Z" fill="#7E4798"/>
	<path d="m248.687 78.818 44.506 18.346c-6.116 19.705 11.55 33.634 17.326 36.691 12.91 7.135 25.14 14.609 34.993 23.442 18.685 16.987 29.217 40.769 29.217 65.57 0 24.8-11.211 48.921-30.576 64.889-18.006 14.948-43.147 21.403-67.268 21.403-14.948 0-28.538-.68-43.146-5.435-33.634-11.212-58.435-39.75-60.473-74.063-2.039-26.5 4.076-46.884 24.8-68.287 10.532-11.211 32.275-24.121 47.224-34.313 7.474-4.757 15.288-19.026.34-45.865l3.057-2.378Zm3.397 7.135c1.7 2.378 5.776 12.57 6.795 15.627 2.039 8.494 1.02 16.647-.68 20.385-9.172 16.986-25.48 21.743-37.03 31.255-2.28 1.869-4.58 3.692-6.866 5.52l-1.245.997c-18.024 14.478-34.727 29.77-32.658 70.264 1.359 22.762 19.025 50.96 45.864 63.87 5.111 2.499 10.45 4.466 15.952 6.016-6.567-2.893-12.163-6.487-16.631-11.45 0-.34-1.699-1.7-1.699-1.7-9.512-10.871-21.403-29.217-25.48-46.543-1.699-6.795-3.058-12.23-1.02-19.365 7.112-25.351 21.818-36.917 37.209-47.498l1.015-.697.509-.347 1.527-1.04 1.528-1.04c3.738-2.377 8.494-4.755 12.23-7.813 6.17-4.023 9.798-14.822 12.89-25.543l.308-1.072c.714-2.499 1.403-4.98 2.091-7.359-2.038 10.532-4.417 29.557-13.59 36.692-3.736 2.718-7.813 5.436-11.89 8.154l-1.497 1.007c-16.12 10.85-31.682 21.54-38.932 47.575-1.698 5.775-.34 11.89 1.02 17.666 4.076 16.647 15.627 34.314 24.8 44.845 0 .14.288.453.627.796l.297.298c.399.4.775.785.775.945 6.57 7.765 9.202 10.804 29.128 15.81-4.881-1.99-9.557-4.352-12.82-6.637-16.308-11.212-24.462-25.14-25.82-45.865-1.02-16.307 8.832-32.954 28.197-43.146 13.25-7.135 17.327-17.667 21.404-30.577-3.058 14.949-6.455 23.782-20.045 31.936-16.307 9.173-27.858 27.858-26.839 40.428 1.36 15.288 11.89 32.955 24.121 43.487 4.933 4.384 12.74 7.443 20.389 9.353-2.001-1.578-4.195-3.837-6.12-6.636-2.378-3.397-4.076-8.153-5.775-12.57-1.699-4.077-3.398-8.833-3.398-12.91 0-9.852 1.02-22.083 8.154-30.236 6.455-7.475 8.494-8.494 11.211-17.327-2.038 9.852-3.397 10.532-9.512 19.365-7.814 10.872-8.154 21.743-7.135 28.538.68 4.417 2.379 8.493 3.737 11.89 1.7 4.417 3.738 8.494 6.455 12.231 2.379 2.718 3.738 4.417 7.135 6.116 3.737-7.135 6.115-21.404 6.455-29.218.34-6.795.68-14.608-.34-22.422-1.359-10.532-4.416-20.724-4.756-28.878 1.699 7.474 5.436 18.006 7.474 28.198 1.699 8.154 2.038 15.968 1.359 22.083-.68 7.134-1.02 12.91-2.038 19.025-.935 4.674-3.3 9.063-7.092 13.69 8.598-5.482 13.581-15.211 15.925-26.26 3.057-13.59 3.397-26.5 3.397-33.294 0-4.836-1.7-12.007-3.586-19.164l-.335-1.263c-.392-1.471-.788-2.936-1.175-4.374-1.699-6.795-8.154-13.59-9.852-18.685-3.058-8.494-1.699-14.61-2.039-26.5 1.36 10.872 1.36 20.384 4.417 25.48 2.378 4.417 6.455 10.532 8.833 16.647 4.756 11.212 7.134 23.442 7.474 29.218.34 9.852-1.019 25.14-4.416 37.37-1.264 4.107-2.886 7.92-4.706 11.256 3.853-5.939 6.797-12.914 8.103-19.07.22-1.035.44-2.075.654-3.117l.32-1.564c3.918-19.303 6.636-39.093 4.122-51.035-.68-3.058-1.699-13.25-5.775-24.121-5.776-15.968-14.27-28.878-15.289-31.935-3.243-8.432-4.01-28.936-4.368-41.125l-.007-.282c.103 3.001.306 6.28.584 9.622l.09 1.057c.062.706.127 1.414.195 2.122l.104 1.061c.018.177.035.354.054.53l.11 1.058c1.088 10.211 2.742 19.867 4.258 22.899 1.019 3.058 10.192 17.666 16.647 32.954 4.416 9.853 5.775 19.365 6.115 22.083 3.397 28.538.68 40.429-6.795 65.91-.903 3.125-2.132 6.108-3.56 8.88 4.297-5.513 7.461-11.427 8.656-16.355 7.135-31.596 9.853-72.364-.34-103.62-5.435-16.307-18.345-30.576-20.723-40.428-2.039-9.173-2.039-18.686-1.36-30.916l3.398 1.698c-1.699 3.737-.68 22.763 2.038 29.897 3.398 9.513 13.25 20.384 19.365 35.672 1.546 3.568 3.092 8.883 4.463 14.402l.233.948c.116.474.23.95.343 1.425l.224.95c2.145 9.18 3.713 18.07 3.91 19.646 3.398 28.538 1.699 55.377-6.794 78.14-4.015 10.538-12.478 20.15-18.68 24.593 16.508-2.228 39.26-10.665 52.993-21.876 17.666-14.609 27.179-37.031 27.179-59.794 0-22.762-8.833-44.505-26.16-59.793-9.852-8.833-25.82-19.705-36.012-25.48-10.192-5.776-22.762-21.744-18.685-37.032Z" fill="#010101"/>
	<path d="M12.91 29.896h183.797c6.795 0 12.91 5.776 12.91 12.91v54.358c0 7.134-6.115 12.91-12.91 12.91h-37.71c-8.494 0-12.23 4.756-12.23 10.192v177.682c0 6.115-4.757 10.532-10.533 10.532H73.723c-5.776 0-10.192-4.417-10.192-10.532v-179.38c0-5.437-5.096-8.834-8.833-8.834H12.91C5.776 109.734 0 103.96 0 96.824V42.466c0-6.794 5.776-12.57 12.91-12.57Z" fill="#7E4798"/>
	<path d="M484.464 101.92h16.307c6.116 0 10.872 4.756 10.872 10.532v58.095c0 7.474.34 10.532-8.833 10.532-18.006 0-26.16 9.512-26.16 20.044v98.184c0 4.417-4.416 8.493-9.512 8.493h-58.435c-5.096 0-9.513-3.737-9.513-8.493V187.534c0-2.039 0-4.757.34-6.455 3.058-41.448 35.672-74.403 76.78-78.82 1.02 0 5.776-.339 8.154-.339Z" fill="#7E4798"/>
</svg>
